app/assets/images/heroicon/solid/shield-check.svg

<svg width="24" height="24" viewBox="0 0 24 24" fill="none" xmlns="http://www.w3.org/2000/svg">
<path fill-rule="evenodd" clip-rule="evenodd" d="M12.5157 2.1698C12.2265 1.89587 11.7735 1.89587 11.4843 2.1698C9.46752 4.07977 6.74624 5.25011 3.75 5.25011C3.70233 5.25011 3.65473 5.24981 3.60721 5.24922C3.27984 5.24515 2.98767 5.4539 2.88541 5.76491C2.47287 7.01968 2.25 8.35963 2.25 9.75015C2.25 15.6922 6.31406 20.6831 11.8131 22.0984C11.9357 22.13 12.0643 22.13 12.1869 22.0984C17.6859 20.6831 21.75 15.6922 21.75 9.75015C21.75 8.35963 21.5271 7.01968 21.1146 5.76491C21.0123 5.4539 20.7202 5.24515 20.3928 5.24922C20.3453 5.24981 20.2977 5.25011 20.25 5.25011C17.2538 5.25011 14.5325 4.07977 12.5157 2.1698ZM15.0588 10.3124C15.3694 10.0383 15.3989 9.56434 15.1248 9.25379C14.8507 8.94324 14.3768 8.91369 14.0662 9.18778C12.7083 10.3863 11.6072 11.8702 10.857 13.5464L9.53033 12.2198C9.23744 11.9269 8.76256 11.9269 8.46967 12.2198C8.17678 12.5127 8.17678 12.9875 8.46967 13.2804L10.6054 15.4162C10.7887 15.5994 11.0535 15.6751 11.3059 15.6163C11.5583 15.5575 11.7624 15.3726 11.8459 15.1272C12.4835 13.2514 13.6034 11.597 15.0588 10.3124Z" fill="#0F172A"/>
</svg>

<svg xmlns="http://www.w3.org/2000/svg" viewBox="0 0 24 24" fill="currentColor" aria-hidden="true">
  <path fill-rule="evenodd" d="M12.516 2.17a.75.75 0 00-1.032 0 11.209 11.209 0 01-7.877 3.08.75.75 0 00-.722.515A12.74 12.74 0 002.25 9.75c0 5.942 4.064 10.933 9.563 12.348a.749.749 0 00.374 0c5.499-1.415 9.563-6.406 9.563-12.348 0-1.39-.223-2.73-.635-3.985a.75.75 0 00-.722-.516l-.143.001c-2.996 0-5.717-1.17-7.734-3.08zm2.543 8.142a.75.75 0 10-.993-1.124 12.785 12.785 0 00-3.209 4.358L9.53 12.22a.75.75 0 00-1.06 1.06l2.135 2.136a.75.75 0 001.24-.289 11.264 11.264 0 013.214-4.815z" clip-rule="evenodd"/>
</svg>
